X:43
T:Woodsmith
R:hornpipe
C:Paul S. Cranford
O:Cape Breton Island
N:Winston Fitzgerald made most of his recordings with Don's fiddle
S:http://www.cranfordpub.com
D:currently unrecorded
B:currently unpublished in book form
Z:psc
H:                                                        copyrights Cranford Publications, SOCAN
L:1/8
Q:333
M:C
K:D
(3(ABc)|dAFA Bdce|d2 dc dcBA|BGBd AFDF|GFED E2 (3(ABc)|
dAFA Bdce|d3 e dcBA|BGBd ABce|d2 dc d2:|
|:ed|cdef g2 ag|fdec d2 (3(AB=c)|BGBd Adef|gfed e2 ed|
cdef g2 ag|fdec dAFA|GABG  ABce|d2 dc d2:|
